X: 20072
T: Jimmy McBride's
R: reel
M: 4/4
K: Dmajor
FG|:A2dA BAF2|AFEF ABde|fd d2 BABd|egfg ecdB|
A2dA BAF2|AFEF ABde|fd d2 (3Bcd AF|1 GFEF DEFG:|2 GFEF D3g||
|:faga fdcd|faga fdcd|Beed efga|(3bag af gfeg|
fdcd AdFd|BGFG DGBG|ABcd efag|1 fgef d3g:|2 fgef d2||

